X: 18532
M: 6/8
L: 1/8
K: C
V: 1 clef=treble middle=B
[|]\
e2e e2e | {e}dcd c2c | B2c d2B | c2d e2c |\
e2e e2e | {e}dcd cde | f2e dec | cdB c3 |]
d2d B2G | cde d2d | d2d B2G | cde d3 |\
g2g {a}g^fg | (^fe).e (ed).d | (dc).c {c}B2(d/c/) | B2A G3 |]
{ef}g2g g2g | {f}fef e2e | d2e f2d | e2f g2e |\
{ef}g2g g2g | {f}fef efg | a2g fge | efd c3 |]
V: 2 clef=bass middle=d
[|]"1st strain 8va . . ."\
ceg ceg | Bdg ceg | dfg dfg | ceg ceg |\
ceg ceg | Bdg cfg | a2g fge | efd e3 |]
gbd' gbd' | (gc').c' (c'b).b | (ba).a {a}g2c' | d'2d g3 |]
!p!{c'd'}e'2e' e'2e' | {e'}d'c'd' c'2c' | b2c' d'2b | c'2d' e'2c' |\
   {c'd'}e'2e' e'2e' | {e'}d'c'd' c'2e | f2e d2c | g2G c3 |]

